build/img/sprite_auto.svg

<svg xmlns="http://www.w3.org/2000/svg" xmlns:xlink="http://www.w3.org/1999/xlink"><defs>
<linearGradient id="paint0_linear" x1="4.73684" y1="0.485716" x2="14.6703" y2="3.98809" gradientUnits="userSpaceOnUse">
<stop stop-color="#FFC341"/>
<stop offset="0.963542" stop-color="#FFD701"/>
</linearGradient>
</defs><symbol id="icon-play" viewBox="0 0 14 17">
<path d="M13.3334 8.58335L0.833374 16.5V0.666687L13.3334 8.58335Z" fill="#1FC0FC"/>
</symbol><symbol id="icon-telegram" viewBox="0 0 24 24">
<g>
<path d="M9.63262 14.8632L9.2687 19.8888C9.78938 19.8888 10.0149 19.6692 10.2853 19.4055L12.7264 17.115L17.7847 20.7519C18.7124 21.2595 19.366 20.9922 19.6163 19.914L22.9365 4.63926L22.9374 4.63836C23.2317 3.29196 22.4415 2.76547 21.5377 3.09576L2.02135 10.4316C0.689406 10.9392 0.709573 11.6682 1.79493 11.9985L6.78447 13.5222L18.3742 6.40235C18.9196 6.04775 19.4155 6.24395 19.0076 6.59855L9.63262 14.8632Z" fill="#currentColor"/>
</g>
</symbol><symbol id="icon-whatsapp" viewBox="0 0 24 24">
<g>
<path d="M12.0025 2H11.9975C6.48375 2 2 6.485 2 12C2 14.1875 2.705 16.215 3.90375 17.8612L2.6575 21.5763L6.50125 20.3475C8.0825 21.395 9.96875 22 12.0025 22C17.5162 22 22 17.5138 22 12C22 6.48625 17.5162 2 12.0025 2ZM17.8212 16.1213C17.58 16.8025 16.6225 17.3675 15.8587 17.5325C15.3363 17.6437 14.6537 17.7325 12.3562 16.78C9.4175 15.5625 7.525 12.5763 7.3775 12.3825C7.23625 12.1887 6.19 10.8013 6.19 9.36625C6.19 7.93125 6.91875 7.2325 7.2125 6.9325C7.45375 6.68625 7.8525 6.57375 8.235 6.57375C8.35875 6.57375 8.47 6.58 8.57 6.585C8.86375 6.5975 9.01125 6.615 9.205 7.07875C9.44625 7.66 10.0337 9.095 10.1038 9.2425C10.175 9.39 10.2463 9.59 10.1462 9.78375C10.0525 9.98375 9.97 10.0725 9.8225 10.2425C9.675 10.4125 9.535 10.5425 9.3875 10.725C9.2525 10.8837 9.1 11.0538 9.27 11.3475C9.44 11.635 10.0275 12.5937 10.8925 13.3637C12.0087 14.3575 12.9137 14.675 13.2375 14.81C13.4787 14.91 13.7662 14.8863 13.9425 14.6988C14.1663 14.4575 14.4425 14.0575 14.7238 13.6638C14.9237 13.3813 15.1763 13.3462 15.4412 13.4462C15.7113 13.54 17.14 14.2462 17.4338 14.3925C17.7275 14.54 17.9212 14.61 17.9925 14.7338C18.0625 14.8575 18.0625 15.4388 17.8212 16.1213Z" fill="#currentColor"/>
</g>
</symbol><symbol id="icon-close" viewBox="0 0 18 17">
<path fill-rule="evenodd" clip-rule="evenodd" d="M7.48467 8.5L0 1.50703L1.41767 2.46254e-07L9 7.08422L16.5823 0L18 1.50703L10.5153 8.5L18 15.493L16.5823 17L9 9.91578L1.41767 17L6.13436e-07 15.493L7.48467 8.5Z" fill="#FFC341"/>

</symbol><symbol id="icon-arrow" viewBox="0 0 11 18">
<path opacity="0.2" d="M1 16.5L9 9L0.999999 1.5" stroke="#484848" stroke-width="2"/>
</symbol><symbol id="icon-fb" viewBox="0 0 24 24">
<path d="M15.5378 5.18705H17.4V1.94345C17.0787 1.89925 15.9738 1.7998 14.687 1.7998C12.0021 1.7998 10.1628 3.48875 10.1628 6.59296V9.44981H7.19995V13.0759H10.1628V22.1998H13.7954V13.0768H16.6384L17.0897 9.45066H13.7946V6.95251C13.7954 5.90445 14.0776 5.18705 15.5378 5.18705Z" fill="#currentColor"/>
</symbol><symbol id="icon-ig" viewBox="0 0 24 24">
<path d="M12 8.3999C10.0149 8.3999 8.40002 10.0148 8.40002 11.9999C8.40002 13.985 10.0149 15.5999 12 15.5999C13.9852 15.5999 15.6 13.985 15.6 11.9999C15.6 10.0148 13.9852 8.3999 12 8.3999Z" fill="#currentColor"/>
<path fill-rule="evenodd" clip-rule="evenodd" d="M2.40002 17.6106V6.3892C2.40002 4.18596 4.18608 2.3999 6.38932 2.3999H17.6107C19.814 2.3999 21.6 4.18596 21.6 6.3892V17.6106C21.6 19.8138 19.814 21.5999 17.6107 21.5999H6.38932C4.18608 21.5999 2.40002 19.8138 2.40002 17.6106ZM6.55995 9.96611C4.926 14.7018 9.29815 19.0739 14.0338 17.44C15.63 16.8894 16.8896 15.6299 17.4401 14.0338C19.074 9.29803 14.7019 4.92588 9.96612 6.55982C8.37002 7.11037 7.11049 8.37002 6.55995 9.96611ZM18 6.59993C18.6628 6.59993 19.2 6.06268 19.2 5.39993C19.2 4.73719 18.6628 4.19993 18 4.19993C17.3373 4.19993 16.8 4.73719 16.8 5.39993C16.8 6.06268 17.3373 6.59993 18 6.59993Z" fill="#currentColor"/>
</symbol><symbol id="icon-tw" viewBox="0 0 24 24">
<path d="M23.0768 5.1309C22.253 5.49228 21.3752 5.73182 20.4599 5.84812C21.4015 5.28597 22.1201 4.4026 22.4579 3.33784C21.5801 3.86122 20.6109 4.23091 19.5779 4.43722C18.7444 3.54969 17.5564 3 16.2604 3C13.746 3 11.7217 5.0409 11.7217 7.54287C11.7217 7.90287 11.7522 8.24902 11.8269 8.57855C8.05114 8.3944 4.7101 6.58473 2.46566 3.82799C2.07382 4.50783 1.84398 5.28597 1.84398 6.12366C1.84398 7.69656 2.65397 9.09086 3.86134 9.89808C3.13166 9.88423 2.41582 9.67239 1.80936 9.3387C1.80936 9.35255 1.80936 9.37055 1.80936 9.38855C1.80936 11.5956 3.38365 13.4288 5.44809 13.8511C5.0784 13.9522 4.67549 14.0006 4.25734 14.0006C3.96657 14.0006 3.67303 13.984 3.3975 13.9231C3.98595 15.7217 5.65578 17.044 7.6413 17.0869C6.09609 18.2957 4.13411 19.024 2.01013 19.024C1.63767 19.024 1.28044 19.0074 0.923218 18.9617C2.93504 20.259 5.31932 20.9998 7.89053 20.9998C16.248 20.9998 20.8172 14.0768 20.8172 8.07594C20.8172 7.87518 20.8102 7.68133 20.8005 7.48887C21.7019 6.84919 22.4593 6.05027 23.0768 5.1309Z" fill="#currentColor"/>
</symbol></svg>

<svg xmlns="http://www.w3.org/2000/svg" xmlns:xlink="http://www.w3.org/1999/xlink"><defs><linearGradient id="paint0_linear" x1="4.737" y1=".486" x2="14.67" y2="3.988" gradientUnits="userSpaceOnUse"><stop stop-color="#FFC341"/><stop offset=".964" stop-color="#FFD701"/></linearGradient></defs><symbol id="icon-play"><path d="M13.333 8.583L.833 16.5V.667l12.5 7.916z" fill="#1FC0FC"/></symbol><symbol id="icon-telegram"><path d="M9.633 14.863l-.364 5.026c.52 0 .746-.22 1.016-.483l2.441-2.291 5.059 3.637c.927.508 1.581.24 1.831-.838l3.32-15.275h.001c.295-1.347-.495-1.874-1.4-1.543L2.022 10.432c-1.332.507-1.311 1.236-.226 1.566l4.99 1.524 11.59-7.12c.545-.354 1.04-.158.633.197l-9.375 8.264z"/></symbol><symbol id="icon-whatsapp"><path d="M12.002 2h-.005C6.485 2 2 6.485 2 12c0 2.188.705 4.215 1.904 5.861l-1.246 3.715L6.5 20.347A9.913 9.913 0 0012.002 22C17.517 22 22 17.514 22 12S17.516 2 12.002 2zm5.82 14.121c-.242.681-1.2 1.247-1.963 1.412-.523.11-1.205.2-3.503-.753-2.938-1.218-4.831-4.204-4.978-4.398-.142-.193-1.188-1.58-1.188-3.016 0-1.435.729-2.133 1.022-2.433.242-.247.64-.36 1.023-.36.124 0 .235.007.335.012.294.013.441.03.635.494.241.581.829 2.016.899 2.163.071.148.142.348.042.542-.094.2-.176.288-.324.458-.147.17-.287.3-.434.483-.136.159-.288.329-.118.623.17.287.758 1.246 1.623 2.016 1.116.993 2.02 1.311 2.345 1.446.24.1.528.076.705-.111.223-.242.5-.642.78-1.035.2-.283.453-.318.718-.218.27.094 1.699.8 1.993.947.293.147.487.217.558.34.07.124.07.706-.17 1.388z"/></symbol><symbol id="icon-close"><path fill-rule="evenodd" clip-rule="evenodd" d="M7.485 8.5L0 1.507 1.418 0 9 7.084 16.582 0 18 1.507 10.515 8.5 18 15.493 16.582 17 9 9.916 1.418 17 0 15.493 7.485 8.5z" fill="#FFC341"/></symbol><symbol id="icon-arrow"><path opacity=".2" d="M1 16.5L9 9 1 1.5" stroke="#484848" stroke-width="2"/></symbol><symbol id="icon-fb"><path d="M15.538 5.187H17.4V1.943c-.321-.044-1.426-.143-2.713-.143-2.685 0-4.524 1.689-4.524 4.793V9.45H7.2v3.626h2.963V22.2h3.632v-9.123h2.843l.452-3.626h-3.295V6.953c0-1.049.283-1.766 1.743-1.766z"/></symbol><symbol id="icon-ig"><path d="M12 8.4A3.604 3.604 0 008.4 12c0 1.985 1.615 3.6 3.6 3.6s3.6-1.615 3.6-3.6-1.615-3.6-3.6-3.6z"/><path fill-rule="evenodd" clip-rule="evenodd" d="M2.4 17.61V6.39A3.99 3.99 0 016.39 2.4h11.22a3.99 3.99 0 013.99 3.99v11.22a3.99 3.99 0 01-3.99 3.99H6.39a3.99 3.99 0 01-3.99-3.99zm4.16-7.644a5.823 5.823 0 007.474 7.474 5.508 5.508 0 003.406-3.406A5.823 5.823 0 009.966 6.56 5.508 5.508 0 006.56 9.966zM18 6.6a1.2 1.2 0 100-2.4 1.2 1.2 0 000 2.4z"/></symbol><symbol id="icon-tw"><path d="M23.077 5.13a9.443 9.443 0 01-2.617.718 4.516 4.516 0 001.998-2.51 9.075 9.075 0 01-2.88 1.1 4.54 4.54 0 00-7.856 3.106c0 .359.03.705.105 1.035C8.05 8.394 4.71 6.585 2.466 3.828a4.573 4.573 0 00-.622 2.296c0 1.573.81 2.967 2.017 3.774a4.485 4.485 0 01-2.052-.56v.05a4.563 4.563 0 003.64 4.463c-.37.101-.774.15-1.192.15a4.02 4.02 0 01-.86-.078c.589 1.799 2.259 3.121 4.244 3.164a9.125 9.125 0 01-5.63 1.937c-.373 0-.73-.017-1.088-.062A12.787 12.787 0 007.891 21c8.357 0 12.926-6.923 12.926-12.924 0-.2-.007-.395-.017-.587a9.06 9.06 0 002.277-2.358z"/></symbol></svg>
